!!!COM: Johanna Kinkel
!!!CNT: Deutsch
!!!TXO: Deutsch
!!!OTL: Nachgefu2hl
!!!LYR: Goethe
!!!OPR: Sechs Lieder
!!!OPS: Op. 10
!!!ONM: No. 1
!!!ENC: Ben Fuhrman
!!!YOR: Johanna Kinkel: Lieder, volume 1 Poetry by Geibel and Goethe
!!!YOR: Bryn Mawr, Fildegard Publishing CO, 2000
!!!ODT: 1839
!!NB: Only vocal melody encoded.
!!NB: First instance of melodic material only encoded.
!!created: 2/24/10 12:15PM
!!proofed and posted: 2/24/10 12:15PM
**kern	**silbe
*clef G2	*
*k[f#c#g#d#]	*
*M4/4	*
*MM[Lento ma non troppo]	*
=1	=1
{4.g#	{Wenn
8a	die
8b	Re-
8d#	-ben
8e	wie-
8f#	-der
=2	=2
(4.g#	blu2-
8e)	|
4B}	-hen,}
4r	.
=3	=3
{4.B	{ru2h-
8B	-ret
8.B	sich
16B	der
8.cn	Wein
16cn	im
=4	=4
4B	Fas-
4B}	-se;}
2r	.
=5	=5
{4.B	{wenn
8e	die
8g#	Ro-
8e	-sen
8g#	wie-
8b	-der
=6	=6
(4.ee	glu2-
16dd#	|
16cc#)	|
4b	-hen,
(12cc#	weiss
12b	|
12g#)	ich
=7	=7
4.e	nicht
8e	wie
4.g#	mir
8f#	ge-
=8	=8
2e}	-schieht.}
2r	.
==	==
*-	*-
